X:61
T: Graserin und Reiter
N: Q0149I
O: Osteuropa, Ungarn, Budapest, Budakeszi
N: Transkription einer Tonaufnahme. Taktart in Taktwechsel geaendert.
R: Ballade, Verfuehrung, Verlassen des Elternhauses
M: 2/4
L: 1/16
K: G
D2 | G2A2B2c2 | d2d2d2
d2 | e2f2g2e2 |[M:3/4] e4d4z2
d2 |[M:2/4] e2f2g2e2 |[M:3/4] e4d4z2
g2 |[M:2/4] d2B2A2cc | c2B2G2
B2 | B2A2c2F2 |[M:3/4] G2B2d4z2
g2 |[M:2/4] d2B2A2cc | c2B2G2
B2 | B2A2c2F2 | G4z2

@@@ Tune index: 1664
